packages/foundations/assets/icons/functional/images/social/face_neutral_28.svg

<svg width="28" height="28" viewBox="0 0 28 28" fill="none" xmlns="http://www.w3.org/2000/svg">
<g clip-path="url(#clip0_187_369)">
<path fill-rule="evenodd" clip-rule="evenodd" d="M23.0186 14C23.0186 18.9726 18.9726 23.0186 14 23.0186C9.02738 23.0186 4.98138 18.9726 4.98138 14C4.98138 9.02738 9.02738 4.98138 14 4.98138C18.9726 4.98138 23.0186 9.02738 23.0186 14ZM3.5 14C3.5 19.7986 8.20138 24.5 14 24.5C19.7986 24.5 24.5 19.7986 24.5 14C24.5 8.20138 19.7986 3.5 14 3.5C8.20138 3.5 3.5 8.20138 3.5 14ZM18.375 17.5C18.375 17.0161 17.983 16.625 17.5 16.625H10.5C10.017 16.625 9.625 17.0161 9.625 17.5C9.625 17.9839 10.017 18.375 10.5 18.375H17.5C17.983 18.375 18.375 17.9839 18.375 17.5ZM9.1875 11.375C9.1875 10.4081 9.97062 9.625 10.9375 9.625C11.9044 9.625 12.6875 10.4081 12.6875 11.375C12.6875 12.3419 11.9044 13.125 10.9375 13.125C9.97062 13.125 9.1875 12.3419 9.1875 11.375ZM17.0625 13.125C18.0294 13.125 18.8125 12.3419 18.8125 11.375C18.8125 10.4081 18.0294 9.625 17.0625 9.625C16.0956 9.625 15.3125 10.4081 15.3125 11.375C15.3125 12.3419 16.0956 13.125 17.0625 13.125Z" fill="#1A1C1F"/>
</g>
<defs>
<clipPath id="clip0_187_369">
<rect width="28" height="28" fill="white"/>
</clipPath>
</defs>
</svg>

<svg xmlns="http://www.w3.org/2000/svg" width="28" height="28" fill="none"><g clip-path="url(#a)"><path fill="#1A1C1F" fill-rule="evenodd" d="M23.019 14c0 4.973-4.046 9.019-9.019 9.019S4.981 18.973 4.981 14 9.027 4.981 14 4.981 23.019 9.027 23.019 14M3.5 14c0 5.799 4.701 10.5 10.5 10.5S24.5 19.799 24.5 14 19.799 3.5 14 3.5 3.5 8.201 3.5 14m14.875 3.5a.875.875 0 0 0-.875-.875h-7a.875.875 0 1 0 0 1.75h7a.875.875 0 0 0 .875-.875m-9.187-6.125a1.75 1.75 0 1 1 3.498-.001 1.75 1.75 0 0 1-3.498.001m7.874 1.75a1.75 1.75 0 1 0 .002-3.499 1.75 1.75 0 0 0-.002 3.499" clip-rule="evenodd"/></g><defs><clipPath id="a"><path fill="#fff" d="M0 0h28v28H0z"/></clipPath></defs></svg>
